symbols/web/vaccines/materialsymbolsrounded/vaccines_wght600_24px.svg

<svg xmlns="http://www.w3.org/2000/svg" height="24" width="24"><path d="M7 22.7q-.475 0-.8-.313-.325-.312-.325-.762V17.2H5.2q-1.025 0-1.713-.688Q2.8 15.825 2.8 14.8V7.7q-.475-.025-.8-.375-.325-.35-.325-.825 0-.525.35-.863.35-.337.85-.337h3V4.125H5.5q-.525 0-.862-.363Q4.3 3.4 4.3 2.875q0-.5.338-.85.337-.35.862-.35h3q.525 0 .863.35.337.35.337.85 0 .525-.337.887-.338.363-.863.363h-.375V5.3h3q.5 0 .85.337.35.338.35.863 0 .475-.325.825t-.8.375v7.1q0 1.025-.687 1.712-.688.688-1.713.688h-.675v4.425q0 .45-.325.762-.325.313-.8.313Zm-1.8-7.9h3.6v-1.175H7.25q-.35 0-.612-.262-.263-.263-.263-.613t.263-.613q.262-.262.612-.262H8.8v-1.25H7.25q-.35 0-.612-.262-.263-.263-.263-.613t.263-.613q.262-.262.612-.262H8.8V7.7H5.2Zm9.925 7.525q-1.05 0-1.75-.7t-.7-1.75V13.5q0-.75.238-1.262.237-.513.562-.838.475-.425.688-.638.212-.212.212-.387v-.5q-.45-.025-.762-.375-.313-.35-.313-.825 0-.525.338-.863.337-.337.862-.337h5q.525 0 .863.337.337.338.337.863 0 .475-.312.825-.313.35-.763.375v.5q0 .175.25.425t.725.675q.325.325.525.837.2.513.2 1.188v6.375q0 1.05-.7 1.75t-1.75.7Zm0-8.45h3.75V13.5q0-.35-.212-.625-.213-.275-.463-.55-.3-.35-.562-.7-.263-.35-.263-1v-.75h-.75v.75q0 .625-.25.975t-.55.7q-.225.275-.462.55-.238.275-.238.65Zm0 3h3.75v-1.25h-3.75Zm0 3h3.75v-1.25h-3.75Zm0-3h3.75Z"/></svg>

<svg xmlns="http://www.w3.org/2000/svg" height="24" width="24"><path d="M7 22.7Q6.525 22.7 6.2 22.387Q5.875 22.075 5.875 21.625V17.2H5.2Q4.175 17.2 3.487 16.512Q2.8 15.825 2.8 14.8V7.7Q2.325 7.675 2 7.325Q1.675 6.975 1.675 6.5Q1.675 5.975 2.025 5.637Q2.375 5.3 2.875 5.3H5.875V4.125H5.5Q4.975 4.125 4.638 3.762Q4.3 3.4 4.3 2.875Q4.3 2.375 4.638 2.025Q4.975 1.675 5.5 1.675H8.5Q9.025 1.675 9.363 2.025Q9.7 2.375 9.7 2.875Q9.7 3.4 9.363 3.762Q9.025 4.125 8.5 4.125H8.125V5.3H11.125Q11.625 5.3 11.975 5.637Q12.325 5.975 12.325 6.5Q12.325 6.975 12 7.325Q11.675 7.675 11.2 7.7V14.8Q11.2 15.825 10.513 16.512Q9.825 17.2 8.8 17.2H8.125V21.625Q8.125 22.075 7.8 22.387Q7.475 22.7 7 22.7ZM5.2 14.8H8.8V13.625H7.25Q6.9 13.625 6.638 13.363Q6.375 13.1 6.375 12.75Q6.375 12.4 6.638 12.137Q6.9 11.875 7.25 11.875H8.8V10.625H7.25Q6.9 10.625 6.638 10.363Q6.375 10.1 6.375 9.75Q6.375 9.4 6.638 9.137Q6.9 8.875 7.25 8.875H8.8V7.7H5.2ZM15.125 22.325Q14.075 22.325 13.375 21.625Q12.675 20.925 12.675 19.875V13.5Q12.675 12.75 12.913 12.238Q13.15 11.725 13.475 11.4Q13.95 10.975 14.163 10.762Q14.375 10.55 14.375 10.375V9.875Q13.925 9.85 13.613 9.5Q13.3 9.15 13.3 8.675Q13.3 8.15 13.638 7.812Q13.975 7.475 14.5 7.475H19.5Q20.025 7.475 20.363 7.812Q20.7 8.15 20.7 8.675Q20.7 9.15 20.388 9.5Q20.075 9.85 19.625 9.875V10.375Q19.625 10.55 19.875 10.8Q20.125 11.05 20.6 11.475Q20.925 11.8 21.125 12.312Q21.325 12.825 21.325 13.5V19.875Q21.325 20.925 20.625 21.625Q19.925 22.325 18.875 22.325ZM15.125 13.875H18.875V13.5Q18.875 13.15 18.663 12.875Q18.45 12.6 18.2 12.325Q17.9 11.975 17.638 11.625Q17.375 11.275 17.375 10.625V9.875H16.625V10.625Q16.625 11.25 16.375 11.6Q16.125 11.95 15.825 12.3Q15.6 12.575 15.363 12.85Q15.125 13.125 15.125 13.5ZM15.125 16.875H18.875V15.625H15.125ZM15.125 19.875H18.875V18.625H15.125ZM15.125 16.875H18.875Z"/></svg>
